X: 5
T: Missa Almana / Credo
N: Derived from Rue1002c-Missa_Almana-Credo.krn
C: Pierre de la Rue
%%abc-version 2.0
%%abcx-abcm2ps-target-version 5.9.1 (29 Sep 2008)
%%abc-creator hum2abc beta
%%abcx-conversion-date 2019/02/17 08:01:09
%%abc-edited-by Jesse Rodin
%%abc-edited-by Chris Gage 11-16-2012
%%abcx-initial-encoding-date 2012/11/17/
%%humdrum-veritas 2362069842
%%humdrum-veritas-data 945788608
%%linebreak <none>
%%barnumbers 0
L: 1/4
M: 2/1
Q: 1/2=120
%%staves [1 2 3 4]
V: 1 clef=treble
V: 2 clef=treble-8
V: 3 clef=treble-8
V: 4 clef=bass
K: F
[V:1] z8 | 
[V:2] z8 | 
[V:3] z8 :
[V:4] B,,8 | 
[V:1] z8 | 
[V:2] z8 | 
[V:3] x8 :
[V:4] _E,4E,4 | 
[V:1] z8 | 
[V:2] F8 | 
[V:3] x8 | 
[V:4] D,4D,2_E,F, | 
[V:1] z8 | 
[V:2] B4B4 | 
[V:3] z8 :
[V:4] G,4G,4 | 
[V:1] z8 | 
[V:2] A4A2Bc | 
[V:3] x8 :
[V:4] F,8 | 
[V:1] z8 | 
[V:2] d4d4 | 
[V:3] x8 | 
[V:4] B,,4z2B,,2 | 
[V:1] z8 | 
[V:2] c4z2F2 | 
[V:3] z8 :
[V:4] F,3D,E,2F,2- | 
[V:1] z8 | 
[V:2] c4c4 | 
[V:3] x8 :
[V:4] F,2E,D,C,2F,2- | 
[V:1] z8 | 
[V:2] c3BAGB2- | 
[V:3] x8 | 
[V:4] F,E,D,C,D,2G,,2- | 
[V:1] z8 | 
[V:2] B2G4F2 | 
[V:3] z8 :
[V:4] G,,2B,,2A,,4 | 
[V:1] z8 | 
[V:2] G2C4E2 | 
[V:3] x8 :
[V:4] G,,2A,,G,,A,,G,,C,2- | 
[V:1] z8 | 
[V:2] D4C2DC | 
[V:3] x8 | 
[V:4] C,2B,,2C,2F,,2- | 
[V:1] z8 | 
[V:2] DCF4E2 | 
[V:3] z8 :
[V:4] F,,2A,,2G,,4 | 
[V:1] z4E4- | 
[V:2] F4G4 | 
[V:3] x8 :
[V:4] F,,4C,4- | 
[V:1] E2E2E2E2 | 
[V:2] z4G4 | 
[V:3] x8 | 
[V:4] C,2C,2C,2C,2 | 
[V:1] F8 | 
[V:2] A3Bc2c2- | 
[V:3] z8 :
[V:4] F,,2F,4E,2 | 
[V:1] F4E3F | 
[V:2] c2=B2c4 | 
[V:3] x8 :
[V:4] D,4C,2C,2- | 
[V:1] G2G4^F2 | 
[V:2] z8 | 
[V:3] x8 | 
[V:4] C,2B,,2A,,4 | 
[V:1] G4C2F2- | 
[V:2] G4A3B | 
[V:3] z8 :
[V:4] G,,4z4 | 
[V:1] F2E2D4 | 
[V:2] c2c4=B2 | 
[V:3] x8 :
[V:4] z8 | 
[V:1] C4z4 | 
[V:2] c4F2B2- | 
[V:3] x8 | 
[V:4] C,4D,3E, | 
[V:1] z4G4 | 
[V:2] B2A2G4 | 
[V:3] z8 :
[V:4] F,2F,4E,2 | 
[V:1] A3Bc2c2- | 
[V:2] F2f4e2 | 
[V:3] x8 :
[V:4] F,8 | 
[V:1] c2B2c4 | 
[V:2] d4c4 | 
[V:3] x8 | 
[V:4] G,4A,2F,2- | 
[V:1] F2B4A2 | 
[V:2] d3ef2f2- | 
[V:3] z8 :
[V:4] F,E,D,C,B,,2F,,2 | 
[V:1] G4F4 | 
[V:2] f2e2f4 | 
[V:3] x8 :
[V:4] C,4D,4 | 
[V:1] G3AB2B2- | 
[V:2] B2_e4d2 | 
[V:3] x8 | 
[V:4] _E,4D,2B,,2 | 
[V:1] B2A2B2G2- | 
[V:2] c4B4 | 
[V:3] z8 :
[V:4] F,4B,,4 | 
[V:1] G2C2D3E | 
[V:2] z2c2F2B2- | 
[V:3] x8 :
[V:4] C,4B,,4 | 
[V:1] F2F4E2 | 
[V:2] B2A2G4 | 
[V:3] x8 | 
[V:4] A,,2F,,2C,4 | 
[V:1] F8- | 
[V:2] F8 | 
[V:3] C8- :
[V:4] F,,8- | 
[V:1] F8 | 
[V:2] z4c4- | 
[V:3] C8 :
[V:4] F,,8 | 
[V:1] z8 | 
[V:2] c4c4 | 
[V:3] C8 | 
[V:4] z4A,,4 | 
[V:1] F4F4 | 
[V:2] d8 | 
[V:3] F8- :
[V:4] B,,8 | 
[V:1] F4F4 | 
[V:2] d8 | 
[V:3] F8 :
[V:4] B,,4B,,4- | 
[V:1] D8 | 
[V:2] B4A4 | 
[V:3] F8 | 
[V:4] B,,4D,4 | 
[V:1] C8- | 
[V:2] z2A3Bc2 | 
[V:3] E8- :
[V:4] A,,8 | 
[V:1] C4z2C2- | 
[V:2] A2c4A2 | 
[V:3] E8 :
[V:4] z2A,,3B,,C,2 | 
[V:1] CDE2C2E2- | 
[V:2] A8 | 
[V:3] E8 | 
[V:4] A,,2C,4A,,2 | 
[V:1] E2C2C4- | 
[V:2] z2A3Bc2 | 
[V:3] E8- :
[V:4] A,,8 | 
[V:1] C4z2C2- | 
[V:2] A2c4A2 | 
[V:3] E8 :
[V:4] z2A,,3B,,C,2 | 
[V:1] CDE2C2E2- | 
[V:2] A8 | 
[V:3] E8 | 
[V:4] A,,2C,4A,,2 | 
[V:1] E2C2C4 | 
[V:2] z4E4 | 
[V:3] A8- :
[V:4] A,,8 | 
[V:1] D4z2F2- | 
[V:2] F4D4 | 
[V:3] A8- :
[V:4] z2D,3E,F,2 | 
[V:1] FGA2F2A2- | 
[V:2] d4d2d2- | 
[V:3] A8 | 
[V:4] D,2F,4D,2 | 
[V:1] A2F2F4 | 
[V:2] d2cBA2d2 | 
[V:3] A8 :
[V:4] D,8 | 
[V:1] G4E4 | 
[V:2] B2c3BAG | 
[V:3] G4A4- :
[V:4] E,4C,4 | 
[V:1] F8 | 
[V:2] F8 | 
[V:3] A4B4 | 
[V:4] D,8 | 
[V:1] E8 | 
[V:2] G4z2G2 | 
[V:3] c8- :
[V:4] C,8- | 
[V:1] z2G2A2c2- | 
[V:2] A2c3BA2 | 
[V:3] c8- :
[V:4] C,8 | 
[V:1] cBA2G4 | 
[V:2] G2F2E4 | 
[V:3] c8 | 
[V:4] C,4z2C,2 | 
[V:1] F2A3GF2 | 
[V:2] D8 | 
[V:3] z8 :
[V:4] D,2F,3E,D,2 | 
[V:1] E2D2C3D | 
[V:2] z2D2E2F2 | 
[V:3] x8 :
[V:4] C,2B,,2A,,4 | 
[V:1] E2D2G3F | 
[V:2] G4z2D2 | 
[V:3] x8 | 
[V:4] G,,8 | 
[V:1] E2D2z2G2 | 
[V:2] E2F2G4 | 
[V:3] z8 :
[V:4] z4C,4 | 
[V:1] F2A3GF2 | 
[V:2] z8 | 
[V:3] x8 :
[V:4] D,2F,3E,D,2 | 
[V:1] E2D2C3D | 
[V:2] z2D2E2F2 | 
[V:3] A8 | 
[V:4] C,2B,,2A,,4 | 
[V:1] E2D2G4 | 
[V:2] G8 | 
[V:3] B8 :
[V:4] G,,8 | 
[V:1] F8 | 
[V:2] z4A4 | 
[V:3] A4d4- :
[V:4] D,8 | 
[V:1] z4F4 | 
[V:2] B4A4 | 
[V:3] d4c4 | 
[V:4] z4F,4 | 
[V:1] F4F4 | 
[V:2] A4B4- | 
[V:3] d8 :
[V:4] D,4B,,4 | 
[V:1] F8 | 
[V:2] B4A4 | 
[V:3] d6c2 :
[V:4] D,8 | 
[V:1] F8 | 
[V:2] z4d4 | 
[V:3] B4A4 | 
[V:4] D,8 | 
[V:1] G4E4 | 
[V:2] B4c4 | 
[V:3] G8- :
[V:4] _E,4C,4 | 
[V:1] E2E4E2 | 
[V:2] c4c2c2- | 
[V:3] G8- :
[V:4] C,2C,4C,2 | 
[V:1] E2E2G4 | 
[V:2] c2c2c4 | 
[V:3] G8 | 
[V:4] C,2C,2C,4 | 
[V:1] E4z2G2- | 
[V:2] G4z2E2- | 
[V:3] c8- :
[V:4] C,8- | 
[V:1] G2FGA2G2 | 
[V:2] E2DEF2E2 | 
[V:3] c8- :
[V:4] C,4z2E,2- | 
[V:1] E4z2G2- | 
[V:2] C4z2E2- | 
[V:3] c8- | 
[V:4] E,2D,E,F,2E,2 | 
[V:1] G2FGA2G2 | 
[V:2] E2DEF2E2- | 
[V:3] c8 :
[V:4] C,4z2C,2- | 
[V:1] C4z2C2- | 
[V:2] E2DEF2E2 | 
[V:3] A8- :
[V:4] C,2B,,C,D,2C,2 | 
[V:1] C2B,CD2C2 | 
[V:2] C4z2c2- | 
[V:3] A8 | 
[V:4] A,,4D,2A,,2- | 
[V:1] A,2E2F2E2- | 
[V:2] c2Bcd2c2- | 
[V:3] z8 :
[V:4] A,,2C,2B,,C,3 | 
[V:1] E2A4G2 | 
[V:2] c2A2B4 | 
[V:3] x4G4 :
[V:4] A,,4z4 | 
[V:1] A4z2G2 | 
[V:2] A4z4 | 
[V:3] c4B4 | 
[V:4] z8 | 
[V:1] c4B4 | 
[V:2] z8 | 
[V:3] A4z2G2 :
[V:4] z8 | 
[V:1] A4z2G2 | 
[V:2] z8 | 
[V:3] c4B4 :
[V:4] z8 | 
[V:1] A2F4G2 | 
[V:2] z8 | 
[V:3] A4z2B2 | 
[V:4] z8 | 
[V:1] A4F2G2- | 
[V:2] z8 | 
[V:3] c2d4B2 :
[V:4] z8 | 
[V:1] G2FED2C2- | 
[V:2] z8 | 
[V:3] c4B2A2 :
[V:4] z4z2F,,2 | 
[V:1] C2F4E2 | 
[V:2] z8 | 
[V:3] G2F2G4 | 
[V:4] G,,2A,,2B,,2C,2 | 
[V:1] F8 | 
[V:2] z8 | 
[V:3] F8 :
[V:4] D,4B,,2F,2- | 
[V:1] z8 | 
[V:2] A8 | 
[V:3] z8 :
[V:4] F,2D,4C,2 | 
[V:1] z8 | 
[V:2] A4F2c2- | 
[V:3] x8 | 
[V:4] D,2C,2D,2A,,2 | 
[V:1] z8 | 
[V:2] cBA4G2 | 
[V:3] z8 :
[V:4] C,2D,2B,,4 | 
[V:1] z8 | 
[V:2] A4z2F2 | 
[V:3] x8 :
[V:4] A,,8 | 
[V:1] z8 | 
[V:2] G2B2A2G2 | 
[V:3] x8 | 
[V:4] z2B,,2C,2_E,2 | 
[V:1] z8 | 
[V:2] A3Bc2B2 | 
[V:3] z8 :
[V:4] D,2C,4D,2- | 
[V:1] z8 | 
[V:2] A3BcdB2- | 
[V:3] x8 :
[V:4] D,E,F,G,E,3F, | 
[V:1] z8 | 
[V:2] BAd4^c2 | 
[V:3] x8 | 
[V:4] G,2D,2E,4 | 
[V:1] z4F4 | 
[V:2] d4d4 | 
[V:3] A8 :
[V:4] D,4D,4 | 
[V:1] F4F4 | 
[V:2] d4d4 | 
[V:3] A4A4 :
[V:4] D,4D,4 | 
[V:1] F4F4 | 
[V:2] d4d4 | 
[V:3] A4F4 | 
[V:4] D,4D,4 | 
[V:1] G8 | 
[V:2] e8 | 
[V:3] c8 :
[V:4] C,8- | 
[V:1] G4E4 | 
[V:2] z4A4- | 
[V:3] c4c4 :
[V:4] C,8 | 
[V:1] E2A4GF | 
[V:2] A2GFE2A2- | 
[V:3] c4c4 | 
[V:4] A,,8 | 
[V:1] c4F4 | 
[V:2] A2GFc3d | 
[V:3] c8 :
[V:4] z2F,,3G,,A,,2- | 
[V:1] z4c4- | 
[V:2] ecf4e2 | 
[V:3] c8 :
[V:4] A,,2G,,F,,C,4 | 
[V:1] c4c4 | 
[V:2] f4z2e2 | 
[V:3] A4G4 | 
[V:4] F,,4C,4 | 
[V:1] A4G4 | 
[V:2] f2f2e4 | 
[V:3] c8 :
[V:4] F,,2F,,2C,4 | 
[V:1] c4c4- | 
[V:2] e4e4- | 
[V:3] G4G4 :
[V:4] C,4C,4- | 
[V:1] c4c4 | 
[V:2] e4e4 | 
[V:3] G4A4 | 
[V:4] C,4A,,4 | 
[V:1] z4A4 | 
[V:2] z4d4 | 
[V:3] z4A4 :
[V:4] z4D,4 | 
[V:1] A4G4 | 
[V:2] f4e4 | 
[V:3] F4G4 :
[V:4] D,4E,4 | 
[V:1] F4F4 | 
[V:2] c4=B4 | 
[V:3] A4F4 | 
[V:4] F,4D,4 | 
[V:1] E8 ||  
[V:2] c8 ||  
[V:3] G8 ||  
[V:4] C,8 ||  
[V:1]  [K:F] [K:clef=treble][M:2/1]z8 | 
[V:2]  [K:F] [K:clef=treble-8][M:2/1]z8 | 
[V:3]  [K:F] [K:clef=treble-8][M:2/1]z8 :
[V:4]  [K:F] [K:clef=bass][M:2/1]F,6E,2 | 
[V:1] z8 | 
[V:2] z8 | 
[V:3] x8 :
[V:4] D,4C,2D,2- | 
[V:1] z8 | 
[V:2] z8 | 
[V:3] A8 | 
[V:4] D,2C,B,,A,,4 | 
[V:1] z2B4A2 | 
[V:2] z8 | 
[V:3] B8- :
[V:4] G,,8 | 
[V:1] G4F2G2- | 
[V:2] z8 | 
[V:3] B8- :
[V:4] z8 | 
[V:1] G2FED4 | 
[V:2] z8 | 
[V:3] B8 | 
[V:4] z4G,4 | 
[V:1] C4z4 | 
[V:2] z2c4B2 | 
[V:3] c8- :
[V:4] A,6G,2 | 
[V:1] z8 | 
[V:2] A4G2A2- | 
[V:3] c8- :
[V:4] F,4E,2F,2- | 
[V:1] z4A,4 | 
[V:2] A2GFE4 | 
[V:3] c8 | 
[V:4] F,2E,D,C,4 | 
[V:1] B,2B,4A,G, | 
[V:2] D8 | 
[V:3] d8- :
[V:4] B,,4z2B,,2- | 
[V:1] F,2G,2A,2B,2- | 
[V:2] z4D4 | 
[V:3] d8- :
[V:4] B,,2A,,G,,F,,2G,,2- | 
[V:1] B,2A,4G,2 | 
[V:2] D4D4 | 
[V:3] d8 | 
[V:4] G,,2A,,2B,,4 | 
[V:1] A,8 | 
[V:2] E8- | 
[V:3] c8- :
[V:4] A,,8 | 
[V:1] G,4A,4 | 
[V:2] E8 | 
[V:3] c8- :
[V:4] C,8 | 
[V:1] z2C3B,A,2- | 
[V:2] z2A3GF2- | 
[V:3] c8- | 
[V:4] F,,4F,,2F,,2 | 
[V:1] A,2G,F,G,4 | 
[V:2] F2EDE4 | 
[V:3] c8- :
[V:4] F,,2F,,2C,4 | 
[V:1] F,2A3GF2- | 
[V:2] F2c3BA2- | 
[V:3] c8- :
[V:4] F,,4F,,2F,,2 | 
[V:1] F2EDE4 | 
[V:2] A2GFG4 | 
[V:3] c8 | 
[V:4] F,,2F,,2C,2C,2 | 
[V:1] F4z2c2- | 
[V:2] F8 | 
[V:3] A4c4 :
[V:4] F,,8 | 
[V:1] cBA4GF | 
[V:2] z4c4 | 
[V:3] c2B2A4 :
[V:4] z2F,,2F,,2F,,2 | 
[V:1] E2F4E2 | 
[V:2] c2c2c4- | 
[V:3] G8 | 
[V:4] C,4C,4 | 
[V:1] F8- | 
[V:2] c4A3B | 
[V:3] F8- :
[V:4] z4F,,3G,, | 
[V:1] F8 | 
[V:2] c2d4c2 | 
[V:3] F8- :
[V:4] A,,2B,,4A,,2 | 
[V:1] z8 | 
[V:2] d3cA4 | 
[V:3] F8 | 
[V:4] B,,3A,,F,,4 | 
[V:1] D3EF2G2- | 
[V:2] G3FD2_E2- | 
[V:3] B8- :
[V:4] z8 | 
[V:1] G2F2G3F | 
[V:2] E2D2_E4 | 
[V:3] B8- :
[V:4] z8 | 
[V:1] D4z4 | 
[V:2] F3EF2G2- | 
[V:3] B8 | 
[V:4] B,,3C,D,2_E,2- | 
[V:1] z8 | 
[V:2] G2F2G3F | 
[V:3] B8 :
[V:4] E,2D,2_E,3D, | 
[V:1] z4F3G | 
[V:2] D8 | 
[V:3] d8 :
[V:4] B,,8 | 
[V:1] A2B4A2 | 
[V:2] z8 | 
[V:3] c8 | 
[V:4] z4F,4 | 
[V:1] B3AF4 | 
[V:2] d6cB | 
[V:3] B8 :
[V:4] G,2B,4A,2 | 
[V:1] z2B4A2 | 
[V:2] A2d2B2c2 | 
[V:3] z8 :
[V:4] F,2G,4F,2 | 
[V:1] F2G4F2 | 
[V:2] d4c2d2- | 
[V:3] x8 | 
[V:4] D,2_E,4D,2 | 
[V:1] D2_E4D2 | 
[V:2] d2G2A2B2- | 
[V:3] z8 :
[V:4] B,,2C,4B,,2- | 
[V:1] B,2C4D2 | 
[V:2] B2AGF3G | 
[V:3] x8 :
[V:4] B,,2F,3E,D,2- | 
[V:1] F4_E4 | 
[V:2] A2B4A2 | 
[V:3] x8 | 
[V:4] D,2C,B,,C,4 | 
[V:1] D4z2F2 | 
[V:2] B2G4F_E | 
[V:3] B8- :
[V:4] B,,8- | 
[V:1] F2F2F2F2 | 
[V:2] D8 | 
[V:3] B8- :
[V:4] B,,8 | 
[V:1] F4G4 | 
[V:2] z8 | 
[V:3] B8 | 
[V:4] D,4E,4 | 
[V:1] A4z2F2 | 
[V:2] z2F2A3B | 
[V:3] A8- :
[V:4] F,8 | 
[V:1] A2B2c3B | 
[V:2] c3BA2GF | 
[V:3] A8- :
[V:4] z4z2F,,2 | 
[V:1] A2GFE4- | 
[V:2] E4z2c2- | 
[V:3] A8 | 
[V:4] A,,2B,,2C,4- | 
[V:1] E4E2E2 | 
[V:2] c2c2c2c2 | 
[V:3] G8- :
[V:4] C,4C,2C,2 | 
[V:1] E2D2E2G2- | 
[V:2] c2d2c2d2 | 
[V:3] G8- :
[V:4] C,2B,,2C,2B,,2 | 
[V:1] GFEDE4 | 
[V:2] e2d2c4 | 
[V:3] G8 | 
[V:4] C,2B,,2C,4 | 
[V:1] F8 | 
[V:2] c4z2C2 | 
[V:3] F8- :
[V:4] F,,4z2F,,2 | 
[V:1] z8 | 
[V:2] D3B,C2D2- | 
[V:3] F8 :
[V:4] B,,2B,,2A,,2B,,2 | 
[V:1] z8 | 
[V:2] D2C4B,2 | 
[V:3] E8 | 
[V:4] C,2A,,2G,,4 | 
[V:1] z2C2F2F2 | 
[V:2] C2c2d3B | 
[V:3] F8 :
[V:4] F,,8 | 
[V:1] E2F2G2E2 | 
[V:2] c2d4c2- | 
[V:3] z8 :
[V:4] z8 | 
[V:1] D4C2F2 | 
[V:2] c2B2c2F2 | 
[V:3] x8 | 
[V:4] z8 | 
[V:1] G3EF2G2- | 
[V:2] B2B2A2B2 | 
[V:3] z8 :
[V:4] z8 | 
[V:1] G2F4E2 | 
[V:2] c2A2G4 | 
[V:3] x8 :
[V:4] z8 | 
[V:1] F8 | 
[V:2] F8 | 
[V:3] x8 | 
[V:4] z2B,,2A,,2B,,2- | 
[V:1] z8 | 
[V:2] z8 | 
[V:3] F8 :
[V:4] B,,2C,2D,4 | 
[V:1] z8 | 
[V:2] z2c2B2c2- | 
[V:3] G8- :
[V:4] C,4z2_E,2- | 
[V:1] z8 | 
[V:2] c2d2_e4 | 
[V:3] G8 | 
[V:4] E,2D,2C,2C,2 | 
[V:1] F4E2F2- | 
[V:2] d2D2C2D2- | 
[V:3] A8- :
[V:4] F,4z4 | 
[V:1] F2G2A4 | 
[V:2] D2E2F4 | 
[V:3] A8 :
[V:4] z8 | 
[V:1] G4z4 | 
[V:2] G4z4 | 
[V:3] B4A2B2- | 
[V:4] G,4F,2G,2- | 
[V:1] G8 | 
[V:2] z8 | 
[V:3] B2c2d4 :
[V:4] G,2A,2B,4 | 
[V:1] A4A4 | 
[V:2] z8 | 
[V:3] c8 :
[V:4] A,8 | 
[V:1] D3B,C2D2 | 
[V:2] z8 | 
[V:3] B3GA2B2 | 
[V:4] z8 | 
[V:1] E2D4^C2 | 
[V:2] z8 | 
[V:3] G2D2E4 :
[V:4] z8 | 
[V:1] D4z2D2 | 
[V:2] z8 | 
[V:3] D4d4 :
[V:4] z8 | 
[V:1] A3FG2A2 | 
[V:2] z8 | 
[V:3] c3AB2c2 | 
[V:4] z8 | 
[V:1] B2A4G2 | 
[V:2] z8 | 
[V:3] d2A2B4 :
[V:4] z8 | 
[V:1] A8 | 
[V:2] z8 | 
[V:3] A4z2D2 :
[V:4] z8 | 
[V:1] F3DE2F2 | 
[V:2] z8 | 
[V:3] A3FG2A2 | 
[V:4] z8 | 
[V:1] D2A,2B,4 | 
[V:2] z8 | 
[V:3] B2A4G2 :
[V:4] z8 | 
[V:1] A,8 | 
[V:2] E4E2F2- | 
[V:3] A8 :
[V:4] A,,8- | 
[V:1] z8 | 
[V:2] FEA4G2- | 
[V:3] z8 | 
[V:4] A,,4A,,2B,,2- | 
[V:1] z8 | 
[V:2] GFEDEDA2- | 
[V:3] z8 :
[V:4] B,,A,,D,4C,2- | 
[V:1] z8 | 
[V:2] A2G4^F2 | 
[V:3] x8 :
[V:4] C,B,,A,,G,,A,,4 | 
[V:1] z8 | 
[V:2] G3FEDE2- | 
[V:3] x8 | 
[V:4] G,,4z2C,2- | 
[V:1] z8 | 
[V:2] E2D4C2 | 
[V:3] A8 :
[V:4] C,B,,A,,G,,A,,4 | 
[V:1] z8 | 
[V:2] D4d4 | 
[V:3] B8 :
[V:4] G,,4z2G,2- | 
[V:1] z4E4 | 
[V:2] z4G4 | 
[V:3] c8 | 
[V:4] G,F,E,D,E,4 | 
[V:1] F3GA2A2- | 
[V:2] A3GFEF2- | 
[V:3] d8 :
[V:4] D,8 | 
[V:1] A2G2E2G2- | 
[V:2] F2EDC2_E2- | 
[V:3] c8 :
[V:4] z8 | 
[V:1] G2F2D2F2- | 
[V:2] E2D2B,2D2- | 
[V:3] B8 | 
[V:4] z8 | 
[V:1] F2EDC4- | 
[V:2] D2E2F3G | 
[V:3] A8 :
[V:4] z8 | 
[V:1] C4C4- | 
[V:2] A4A4- | 
[V:3] E4E4 :
[V:4] A,,4A,,4 | 
[V:1] C2C2C2C2 | 
[V:2] A2A2A2A2 | 
[V:3] E4E4 | 
[V:4] A,,4A,,4 | 
[V:1] D4F4 | 
[V:2] F2G2F2D2- | 
[V:3] D4D3E :
[V:4] B,,4B,,4 | 
[V:1] F4G4 | 
[V:2] D2C4B,2 | 
[V:3] F2F4E2 :
[V:4] B,,2A,,2G,,4 | 
[V:1] A4F4 | 
[V:2] C4c4 | 
[V:3] F8 | 
[V:4] F,,8 | 
[V:1] z2A2G2F2 | 
[V:2] z2F2G2A2- | 
[V:3] c8- :
[V:4] z2F,2E,2F,2- | 
[V:1] A2B2c4 | 
[V:2] A2GFE4 | 
[V:3] c8 :
[V:4] F,2E,D,C,4 | 
[V:1] z2F2E2D2 | 
[V:2] z2D2E2F2- | 
[V:3] A8- | 
[V:4] z2D,2C,2D,2- | 
[V:1] F2G2A4 | 
[V:2] F2EDC4 | 
[V:3] A8 :
[V:4] D,2C,B,,A,,4 | 
[V:1] z2D2C2B,2 | 
[V:2] D4z2D2- | 
[V:3] F8- :
[V:4] z2B,,2A,,2B,,2- | 
[V:1] D2E2F4 | 
[V:2] DCC4c2- | 
[V:3] F8 | 
[V:4] B,,2A,,G,,F,,4 | 
[V:1] z2E4D2 | 
[V:2] cGG2c2B2 | 
[V:3] G8- :
[V:4] C,4C,2G,,2 | 
[V:1] C2G2G3F | 
[V:2] _e3dc2B2 | 
[V:3] G8- :
[V:4] C,2B,,2_E,3D, | 
[V:1] E2DCD2D2 | 
[V:2] c2c4=B2 | 
[V:3] G8 | 
[V:4] C,4G,,4 | 
[V:1] C4z4 | 
[V:2] c6B2 | 
[V:3] z8 :
[V:4] z2A,,4G,,2 | 
[V:1] z8 | 
[V:2] A2GFEDG2- | 
[V:3] x8 :
[V:4] F,,2C,2C,3B,, | 
[V:1] z8 | 
[V:2] G2F4E2 | 
[V:3] x8 | 
[V:4] A,,2G,,F,,G,,4 | 
[V:1] c6B2 | 
[V:2] F2A2A2G2 | 
[V:3] z8 :
[V:4] F,,4z4 | 
[V:1] A2GFEDG2- | 
[V:2] F2c2c3B | 
[V:3] x8 :
[V:4] z8 | 
[V:1] G2F4E2 | 
[V:2] A2GFG4 | 
[V:3] x8 | 
[V:4] z8 | 
[V:1] F4z2F2 | 
[V:2] F8 | 
[V:3] [M:2/1]z8 | 
[V:4] z2F,,2B,,2A,,2 | 
[V:1] G4A4 | 
[V:2] z8 | 
[V:3] z4F4 | 
[V:4] B,,2C,2A,,4 | 
[V:1] B4A2F2- | 
[V:2] z4F4 | 
[V:3] G4A4 | 
[V:4] G,,4z2D,2- | 
[V:1] F2G2A2B2 | 
[V:2] D2G2F2D2 | 
[V:3] =B4A2F2- | 
[V:4] D,2E,2F,4- | 
[V:1] c6BA | 
[V:2] A3Bc2F2 | 
[V:3] F2G2A2B2 | 
[V:4] F,2E,D,C,2D,2 | 
[V:1] G4z2G2- | 
[V:2] z2G3AB2 | 
[V:3] c2c4B2 | 
[V:4] E,2C,2G,4 | 
[V:1] GEG2F2E2 | 
[V:2] G2c2A2c2- | 
[V:3] c4z2G2 | 
[V:4] C,4D,2C,2 | 
[V:1] C2D2E2C2- | 
[V:2] c2BAG2A2 | 
[V:3] A2G2E2F2 | 
[V:4] A,,2B,,2C,2F,,2 | 
[V:1] CDEFG2C2 | 
[V:2] G2c3BAG | 
[V:3] G2C2c4 | 
[V:4] C,4z2F,2- | 
[V:1] D3EF3G | 
[V:2] F3GA2B2 | 
[V:3] z8 | 
[V:4] F,E,D,4C,B,, | 
[V:1] ABc3BA2- | 
[V:2] c3BA3G/F/ | 
[V:3] z4z2c2- | 
[V:4] A,,2B,,2C,4- | 
[V:1] A2GFEFG2- | 
[V:2] E2F2G2C2 | 
[V:3] cBA4GF | 
[V:4] C,8- | 
[V:1] G2F4E2 | 
[V:2] c8- | 
[V:3] E2F2G4 | 
[V:4] C,4C,4 | 
[V:1] F8- | 
[V:2] c8 | 
[V:3] F8- | 
[V:4] F,,8- | 
[V:1] F8 |]  
[V:2] c8 |]  
[V:3] F8 |]  
[V:4] F,,8 |]  



